svgs/solid/trash-plus.svg

<svg xmlns="http://www.w3.org/2000/svg" viewBox="0 0 448 512"><!--! Font Awesome Pro 6.2.0 by @fontawesome - https://fontawesome.com License - https://fontawesome.com/license (Commercial License) Copyright 2022 Fonticons, Inc. --><path d="M163.8 0H284.2c12.1 0 23.2 6.8 28.6 17.7L320 32h96c17.7 0 32 14.3 32 32s-14.3 32-32 32H32C14.3 96 0 81.7 0 64S14.3 32 32 32h96l7.2-14.3C140.6 6.8 151.7 0 163.8 0zM32 128H416L394.8 467c-1.6 25.3-22.6 45-47.9 45H101.1c-25.3 0-46.3-19.7-47.9-45L32 128zM200 408c0 13.3 10.7 24 24 24s24-10.7 24-24V344h64c13.3 0 24-10.7 24-24s-10.7-24-24-24H248V232c0-13.3-10.7-24-24-24s-24 10.7-24 24v64H136c-13.3 0-24 10.7-24 24s10.7 24 24 24h64v64z"/></svg>

<svg xmlns="http://www.w3.org/2000/svg" viewBox="0 0 448 512"><!--! Font Awesome Pro 6.1.2 by @fontawesome - https://fontawesome.com License - https://fontawesome.com/license (Commercial License) Copyright 2022 Fonticons, Inc. --><path d="M284.2 0C296.3 0 307.4 6.848 312.8 17.69L320 32H416C433.7 32 448 46.33 448 64C448 81.67 433.7 96 416 96H32C14.33 96 0 81.67 0 64C0 46.33 14.33 32 32 32H128L135.2 17.69C140.6 6.848 151.7 0 163.8 0H284.2zM31.1 128H416L394.8 466.1C393.2 492.3 372.3 512 346.9 512H101.1C75.75 512 54.77 492.3 53.19 466.1L31.1 128zM223.1 432C237.3 432 248 421.3 248 408V344H312C325.3 344 336 333.3 336 320C336 306.7 325.3 296 312 296H248V232C248 218.7 237.3 208 223.1 208C210.7 208 199.1 218.7 199.1 232V296H135.1C122.7 296 111.1 306.7 111.1 320C111.1 333.3 122.7 344 135.1 344H199.1V408C199.1 421.3 210.7 432 223.1 432z"/></svg>
